public/new/svg6.svg

<svg fill="none" height="28" viewBox="0 0 29 28" width="29" xmlns="http://www.w3.org/2000/svg" xmlns:xlink="http://www.w3.org/1999/xlink"><clipPath id="a"><path d="m.379883 0h28v28h-28z"/></clipPath><g clip-path="url(#a)" stroke="#77787e"><path d="m21.8798 21.5h-13.99998c-.67362-.0011-1.34007-.1383-1.95935-.4034s-1.17861-.6525-1.64441-1.1391c-.46581-.4866-.82849-1.0623-1.06627-1.6926-.23777-.6303-.34575-1.3021-.31743-1.9751.02831-.673.19233-1.3334.48221-1.9414.28987-.6081.69962-1.1513 1.20466-1.5971.50503-.4457 1.09493-.7849 1.73429-.997.63935-.2121 1.31497-.2928 1.9863-.2373.57447-1.64187 1.70178-3.03299 3.18888-3.93524 1.4872-.90226 3.2417-1.25955 4.9632-1.01071 1.7216.24884 3.3031 1.08833 4.4739 2.37478 1.1708 1.28647 1.858 2.93987 1.944 4.67717.9424.2432 1.7638.8215 2.3106 1.6266.5467.8051.7814 1.7818.66 2.7474-.1213.9657-.5904 1.854-1.3194 2.4987-.729.6448-1.668 1.0018-2.6412 1.0043z" stroke-dasharray="3.5 2.5"/><path d="m21.8798 21.5h-13.99998c-.67362-.0011-1.34007-.1383-1.95935-.4034s-1.17861-.6525-1.64441-1.1391c-.46581-.4866-.82849-1.0623-1.06627-1.6926-.23777-.6303-.34575-1.3021-.31743-1.9751.02831-.673.19233-1.3334.48221-1.9414.28987-.6081.69962-1.1513 1.20466-1.5971.50503-.4457 1.09493-.7849 1.73429-.997.63935-.2121 1.31497-.2928 1.9863-.2373.57447-1.64187 1.70178-3.03299 3.18888-3.93524 1.4872-.90226 3.2417-1.25955 4.9632-1.01071 1.7216.24884 3.3031 1.08833 4.4739 2.37478 1.1708 1.28647 1.858 2.93987 1.944 4.67717.9424.2432 1.7638.8215 2.3106 1.6266.5467.8051.7814 1.7818.66 2.7474-.1213.9657-.5904 1.854-1.3194 2.4987-.729.6448-1.668 1.0018-2.6412 1.0043z" stroke-dasharray="49.87 13.09"/><path d="m10.3799 15 2.5 2.5 5.5-5.5"/></g></svg>

<svg width="29" height="28" viewBox="0 0 29 28" fill="none" xmlns="http://www.w3.org/2000/svg">
<g clip-path="url(#clip0_181_8984)">
<path d="M21.8798 21.5H7.87982C7.2062 21.4989 6.53975 21.3617 5.92047 21.0966C5.30119 20.8315 4.74186 20.4441 4.27606 19.9575C3.81025 19.4709 3.44757 18.8952 3.20979 18.2649C2.97202 17.6346 2.86404 16.9628 2.89236 16.2898C2.92067 15.6168 3.08469 14.9564 3.37457 14.3484C3.66444 13.7403 4.07419 13.1971 4.57923 12.7513C5.08426 12.3056 5.67416 11.9664 6.31352 11.7543C6.95287 11.5422 7.62849 11.4615 8.29982 11.517C8.87429 9.87513 10.0016 8.48401 11.4887 7.58176C12.9759 6.6795 14.7304 6.32221 16.4519 6.57105C18.1735 6.81989 19.755 7.65938 20.9258 8.94583C22.0966 10.2323 22.7838 11.8857 22.8698 13.623C23.8122 13.8662 24.6336 14.4445 25.1804 15.2496C25.7271 16.0547 25.9618 17.0314 25.8404 17.997C25.7191 18.9627 25.25 19.851 24.521 20.4957C23.792 21.1405 22.853 21.4975 21.8798 21.5Z" stroke="#77787E" stroke-dasharray="3.5 2.5"/>
<path d="M21.8798 21.5H7.87982C7.2062 21.4989 6.53975 21.3617 5.92047 21.0966C5.30119 20.8315 4.74186 20.4441 4.27606 19.9575C3.81025 19.4709 3.44757 18.8952 3.20979 18.2649C2.97202 17.6346 2.86404 16.9628 2.89236 16.2898C2.92067 15.6168 3.08469 14.9564 3.37457 14.3484C3.66444 13.7403 4.07419 13.1971 4.57923 12.7513C5.08426 12.3056 5.67416 11.9664 6.31352 11.7543C6.95287 11.5422 7.62849 11.4615 8.29982 11.517C8.87429 9.87513 10.0016 8.48401 11.4887 7.58176C12.9759 6.6795 14.7304 6.32221 16.4519 6.57105C18.1735 6.81989 19.755 7.65938 20.9258 8.94583C22.0966 10.2323 22.7838 11.8857 22.8698 13.623C23.8122 13.8662 24.6336 14.4445 25.1804 15.2496C25.7271 16.0547 25.9618 17.0314 25.8404 17.997C25.7191 18.9627 25.25 19.851 24.521 20.4957C23.792 21.1405 22.853 21.4975 21.8798 21.5Z" stroke="#77787E" stroke-dasharray="49.87 13.09"/>
<path d="M10.3799 15L12.8799 17.5L18.3799 12" stroke="#77787E"/>
</g>
<defs>
<clipPath id="clip0_181_8984">
<rect width="28" height="28" fill="white" transform="translate(0.379883)"/>
</clipPath>
</defs>
</svg>
